app/client/src/assets/icons/blueprintjs/16px/many-to-many.svg

<svg width="16" height="16" viewBox="0 0 16 16" fill="none" xmlns="http://www.w3.org/2000/svg">
<path fill-rule="evenodd" clip-rule="evenodd" d="M3 3C2.44772 3 2 3.44772 2 4C2 4.55228 2.44772 5 3 5C3.55228 5 4 4.55228 4 4C4 3.44772 3.55228 3 3 3ZM6 4C6 4.04694 5.99892 4.09363 5.99679 4.14004C6.25244 4.22104 6.53518 4.3489 6.829 4.55072C7.23542 4.82989 7.62922 5.22633 8 5.77504C8.37078 5.22633 8.76458 4.82989 9.171 4.55072C9.46482 4.3489 9.74756 4.22104 10.0032 4.14004C10.0011 4.09362 10 4.04694 10 4C10 2.34315 11.3431 1 13 1C14.6569 1 16 2.34315 16 4C16 5.65685 14.6569 7 13 7C12.1164 7 11.3221 6.61802 10.7731 6.0102C10.6386 6.02747 10.4858 6.074 10.3034 6.19928C10.0116 6.39968 9.55118 6.87153 9.07626 8C9.55118 9.12847 10.0116 9.60032 10.3034 9.80072C10.4858 9.926 10.6386 9.97253 10.7731 9.9898C11.3221 9.38198 12.1164 9 13 9C14.6569 9 16 10.3431 16 12C16 13.6569 14.6569 15 13 15C11.3431 15 10 13.6569 10 12C10 11.9531 10.0011 11.9064 10.0032 11.86C9.74756 11.779 9.46482 11.6511 9.171 11.4493C8.76458 11.1701 8.37078 10.7737 8 10.225C7.62922 10.7737 7.23542 11.1701 6.829 11.4493C6.53518 11.6511 6.25244 11.779 5.99679 11.86C5.99892 11.9064 6 11.9531 6 12C6 13.6569 4.65685 15 3 15C1.34315 15 0 13.6569 0 12C0 10.3431 1.34315 9 3 9C3.88357 9 4.67792 9.38198 5.22694 9.9898C5.36142 9.97253 5.51424 9.926 5.69662 9.80072C5.98838 9.60032 6.44882 9.12847 6.92374 8C6.44882 6.87153 5.98838 6.39968 5.69662 6.19928C5.51424 6.074 5.36142 6.02747 5.22694 6.0102C4.67792 6.61802 3.88357 7 3 7C1.34315 7 0 5.65685 0 4C0 2.34315 1.34315 1 3 1C4.65685 1 6 2.34315 6 4ZM12 4C12 3.44772 12.4477 3 13 3C13.5523 3 14 3.44772 14 4C14 4.55228 13.5523 5 13 5C12.4477 5 12 4.55228 12 4ZM3 11C2.44772 11 2 11.4477 2 12C2 12.5523 2.44772 13 3 13C3.55228 13 4 12.5523 4 12C4 11.4477 3.55228 11 3 11ZM12 12C12 11.4477 12.4477 11 13 11C13.5523 11 14 11.4477 14 12C14 12.5523 13.5523 13 13 13C12.4477 13 12 12.5523 12 12Z" fill="black"/>
</svg>

<svg xmlns="http://www.w3.org/2000/svg" width="16" height="16"><path fill-rule="evenodd" d="M3 3a1 1 0 1 0 0 2 1 1 0 0 0 0-2Zm3 1c0 .047-.001.094-.003.14.255.081.538.209.832.41.406.28.8.676 1.171 1.225.37-.549.765-.945 1.171-1.224a3.14 3.14 0 0 1 .832-.411 3 3 0 1 1 .77 1.87 1.038 1.038 0 0 0-.47.19c-.291.2-.752.672-1.227 1.8.475 1.128.936 1.6 1.227 1.8.183.126.336.173.47.19a3 3 0 1 1-.77 1.87 3.141 3.141 0 0 1-.832-.41c-.406-.28-.8-.676-1.171-1.225-.37.549-.765.945-1.171 1.224-.294.202-.577.33-.832.411a3 3 0 1 1-.77-1.87c.134-.017.287-.064.47-.19.291-.2.752-.672 1.227-1.8-.475-1.128-.936-1.6-1.227-1.8a1.038 1.038 0 0 0-.47-.19A3 3 0 1 1 6 4Zm6 0a1 1 0 1 1 2 0 1 1 0 0 1-2 0Zm-9 7a1 1 0 1 0 0 2 1 1 0 0 0 0-2Zm9 1a1 1 0 1 1 2 0 1 1 0 0 1-2 0Z" clip-rule="evenodd"/></svg>
